src/assets/Icons/Delivery2.svg

<svg width="40" height="40" viewBox="0 0 40 40" fill="none" xmlns="http://www.w3.org/2000/svg">
<g clip-path="url(#clip0_261_4843)">
<path d="M11.6673 31.6667C13.5083 31.6667 15.0007 30.1743 15.0007 28.3333C15.0007 26.4924 13.5083 25 11.6673 25C9.82637 25 8.33398 26.4924 8.33398 28.3333C8.33398 30.1743 9.82637 31.6667 11.6673 31.6667Z" stroke="black" stroke-width="2" stroke-linecap="round" stroke-linejoin="round"/>
<path d="M28.3333 31.6667C30.1743 31.6667 31.6667 30.1743 31.6667 28.3333C31.6667 26.4924 30.1743 25 28.3333 25C26.4924 25 25 26.4924 25 28.3333C25 30.1743 26.4924 31.6667 28.3333 31.6667Z" stroke="black" stroke-width="2" stroke-linecap="round" stroke-linejoin="round"/>
<path d="M8.33398 28.3335H7.00065C5.89608 28.3335 5.00065 27.4381 5.00065 26.3335V21.6668M3.33398 8.3335H19.6673C20.7719 8.3335 21.6673 9.22893 21.6673 10.3335V28.3335M15.0007 28.3335H25.0007M31.6673 28.3335H33.0007C34.1052 28.3335 35.0007 27.4381 35.0007 26.3335V18.3335M35.0007 18.3335H21.6673M35.0007 18.3335L30.5833 10.9712C30.2218 10.3688 29.5708 10.0002 28.8683 10.0002H21.6673" stroke="black" stroke-width="2" stroke-linecap="round" stroke-linejoin="round"/>
<path d="M8 28H6.66667C5.5621 28 4.66667 27.1046 4.66667 26V21.3333M3 8H19.3333C20.4379 8 21.3333 8.89543 21.3333 10V28M15 28H24.6667M32 28H32.6667C33.7712 28 34.6667 27.1046 34.6667 26V18M34.6667 18H21.3333M34.6667 18L30.2493 10.6377C29.8878 10.0353 29.2368 9.66667 28.5343 9.66667H21.3333" stroke="black" stroke-width="2" stroke-linecap="round" stroke-linejoin="round"/>
<path d="M5 11.8182H11.6667" stroke="black" stroke-width="2" stroke-linecap="round" stroke-linejoin="round"/>
<path d="M1.81836 15.4545H8.48503" stroke="black" stroke-width="2" stroke-linecap="round" stroke-linejoin="round"/>
<path d="M5 19.0909H11.6667" stroke="black" stroke-width="2" stroke-linecap="round" stroke-linejoin="round"/>
</g>
<defs>
<clipPath id="clip0_261_4843">
<rect width="40" height="40" fill="white"/>
</clipPath>
</defs>
</svg>

<svg xmlns="http://www.w3.org/2000/svg" width="40" height="40" fill="none" xmlns:v="https://vecta.io/nano"><g clip-path="url(#A)" stroke="#000" stroke-width="2" stroke-linejoin="round"><path d="M11.667 31.667c1.841 0 3.333-1.492 3.333-3.333S13.508 25 11.667 25s-3.333 1.492-3.333 3.333 1.492 3.333 3.333 3.333zm16.666 0c1.841 0 3.333-1.492 3.333-3.333S30.174 25 28.333 25 25 26.492 25 28.333s1.492 3.333 3.333 3.333z"/><g stroke-linecap="round"><path d="M8.334 28.334H7.001a2 2 0 0 1-2-2v-4.667M3.334 8.334h16.333a2 2 0 0 1 2 2v18m-6.667 0h10m6.667 0h1.333a2 2 0 0 0 2-2v-8m0 0H21.667m13.333 0l-4.417-7.362A2 2 0 0 0 28.868 10h-7.201"/><path d="M8 28H6.667a2 2 0 0 1-2-2v-4.667M3 8h16.333a2 2 0 0 1 2 2v18M15 28h9.667M32 28h.667a2 2 0 0 0 2-2v-8m0 0H21.333m13.333 0l-4.417-7.362a2 2 0 0 0-1.715-.971h-7.201M5 11.818h6.667m-9.849 3.637h6.667M5 19.091h6.667"/></g></g><defs><clipPath id="A"><path fill="#fff" d="M0 0h40v40H0z"/></clipPath></defs></svg>
